static/img/kroki/5678546f9dbb1341f8b45787d539fbee.svg

<?xml version="1.0" encoding="us-ascii" standalone="no"?><svg xmlns="http://www.w3.org/2000/svg" xmlns:xlink="http://www.w3.org/1999/xlink" contentStyleType="text/css" height="573px" preserveAspectRatio="none" style="width:352px;height:573px;" version="1.1" viewBox="0 0 352 573" width="352px" zoomAndPan="magnify"><defs/><g><!--class ai_job--><g id="elem_ai_job"><rect codeLine="23" fill="#3D176E" height="39.7891" id="ai_job" rx="2.5" ry="2.5" style="stroke:#000D19;stroke-width:0.5;" width="91" x="74.5" y="367.37"/><ellipse cx="89.5" cy="387.2645" fill="#ADD1B2" rx="11" ry="11" style="stroke:#181818;stroke-width:1.0;"/><path d="M92.4688,392.9052 Q91.8906,393.202 91.25,393.3427 Q90.6094,393.4989 89.9063,393.4989 Q87.4063,393.4989 86.0781,391.8583 Q84.7656,390.202 84.7656,387.077 Q84.7656,383.952 86.0781,382.2958 Q87.4063,380.6395 89.9063,380.6395 Q90.6094,380.6395 91.25,380.7958 Q91.9063,380.952 92.4688,381.2489 L92.4688,383.9677 Q91.8438,383.3895 91.25,383.1239 Q90.6563,382.8427 90.0313,382.8427 Q88.6875,382.8427 88,383.9208 Q87.3125,384.9833 87.3125,387.077 Q87.3125,389.1708 88,390.2489 Q88.6875,391.3114 90.0313,391.3114 Q90.6563,391.3114 91.25,391.0458 Q91.8438,390.7645 92.4688,390.1864 L92.4688,392.9052 Z " fill="#000000"/><text fill="#D9B8FF" font-family="Helvetica" font-size="17" lengthAdjust="spacing" textLength="49" x="108.5" y="393.1498">ai_job</text></g><!--class ai_resource--><g id="elem_ai_resource"><rect codeLine="26" fill="#3D176E" height="39.7891" id="ai_resource" rx="2.5" ry="2.5" style="stroke:#000D19;stroke-width:0.5;" width="137" x="40.5" y="167.79"/><ellipse cx="55.5" cy="187.6845" fill="#ADD1B2" rx="11" ry="11" style="stroke:#181818;stroke-width:1.0;"/><path d="M58.4688,193.3252 Q57.8906,193.622 57.25,193.7627 Q56.6094,193.9189 55.9063,193.9189 Q53.4063,193.9189 52.0781,192.2783 Q50.7656,190.622 50.7656,187.497 Q50.7656,184.372 52.0781,182.7158 Q53.4063,181.0595 55.9063,181.0595 Q56.6094,181.0595 57.25,181.2158 Q57.9063,181.372 58.4688,181.6689 L58.4688,184.3877 Q57.8438,183.8095 57.25,183.5439 Q56.6563,183.2627 56.0313,183.2627 Q54.6875,183.2627 54,184.3408 Q53.3125,185.4033 53.3125,187.497 Q53.3125,189.5908 54,190.6689 Q54.6875,191.7314 56.0313,191.7314 Q56.6563,191.7314 57.25,191.4658 Q57.8438,191.1845 58.4688,190.6064 L58.4688,193.3252 Z " fill="#000000"/><text fill="#D9B8FF" font-family="Helvetica" font-size="17" lengthAdjust="spacing" textLength="95" x="74.5" y="193.5698">ai_resource</text></g><!--class gcp_resource--><g id="elem_gcp_resource"><rect codeLine="29" fill="#3D176E" height="39.7891" id="gcp_resource" rx="2.5" ry="2.5" style="stroke:#000D19;stroke-width:0.5;" width="150" x="159" y="267.58"/><ellipse cx="174" cy="287.4745" fill="#ADD1B2" rx="11" ry="11" style="stroke:#181818;stroke-width:1.0;"/><path d="M176.9688,293.1152 Q176.3906,293.412 175.75,293.5527 Q175.1094,293.7089 174.4063,293.7089 Q171.9063,293.7089 170.5781,292.0683 Q169.2656,290.412 169.2656,287.287 Q169.2656,284.162 170.5781,282.5058 Q171.9063,280.8495 174.4063,280.8495 Q175.1094,280.8495 175.75,281.0058 Q176.4063,281.162 176.9688,281.4589 L176.9688,284.1777 Q176.3438,283.5995 175.75,283.3339 Q175.1563,283.0527 174.5313,283.0527 Q173.1875,283.0527 172.5,284.1308 Q171.8125,285.1933 171.8125,287.287 Q171.8125,289.3808 172.5,290.4589 Q173.1875,291.5214 174.5313,291.5214 Q175.1563,291.5214 175.75,291.2558 Q176.3438,290.9745 176.9688,290.3964 L176.9688,293.1152 Z " fill="#000000"/><text fill="#D9B8FF" font-family="Helvetica" font-size="17" lengthAdjust="spacing" textLength="108" x="193" y="293.3598">gcp_resource</text></g><!--class gcp_vertex_ai_batch_prediction_job--><g id="elem_gcp_vertex_ai_batch_prediction_job"><rect codeLine="32" fill="#3D176E" height="39.7891" id="gcp_vertex_ai_batch_prediction_job" rx="2.5" ry="2.5" style="stroke:#000D19;stroke-width:0.5;" width="338" x="7" y="528.16"/><ellipse cx="22" cy="548.0545" fill="#ADD1B2" rx="11" ry="11" style="stroke:#181818;stroke-width:1.0;"/><path d="M24.9688,553.6952 Q24.3906,553.992 23.75,554.1327 Q23.1094,554.2889 22.4063,554.2889 Q19.9063,554.2889 18.5781,552.6483 Q17.2656,550.992 17.2656,547.867 Q17.2656,544.742 18.5781,543.0858 Q19.9063,541.4295 22.4063,541.4295 Q23.1094,541.4295 23.75,541.5858 Q24.4063,541.742 24.9688,542.0389 L24.9688,544.7577 Q24.3438,544.1795 23.75,543.9139 Q23.1563,543.6327 22.5313,543.6327 Q21.1875,543.6327 20.5,544.7108 Q19.8125,545.7733 19.8125,547.867 Q19.8125,549.9608 20.5,551.0389 Q21.1875,552.1014 22.5313,552.1014 Q23.1563,552.1014 23.75,551.8358 Q24.3438,551.5545 24.9688,550.9764 L24.9688,553.6952 Z " fill="#000000"/><text fill="#D9B8FF" font-family="Helvetica" font-size="17" lengthAdjust="spacing" textLength="296" x="41" y="553.9398">gcp_vertex_ai_batch_prediction_job</text></g><!--class resource--><g id="elem_resource"><rect codeLine="35" fill="#3D176E" height="39.7891" id="resource" rx="2.5" ry="2.5" style="stroke:#000D19;stroke-width:0.5;" width="113" x="114.5" y="7"/><ellipse cx="129.5" cy="26.8945" fill="#ADD1B2" rx="11" ry="11" style="stroke:#181818;stroke-width:1.0;"/><path d="M132.4688,32.5352 Q131.8906,32.832 131.25,32.9727 Q130.6094,33.1289 129.9063,33.1289 Q127.4063,33.1289 126.0781,31.4883 Q124.7656,29.832 124.7656,26.707 Q124.7656,23.582 126.0781,21.9258 Q127.4063,20.2695 129.9063,20.2695 Q130.6094,20.2695 131.25,20.4258 Q131.9063,20.582 132.4688,20.8789 L132.4688,23.5977 Q131.8438,23.0195 131.25,22.7539 Q130.6563,22.4727 130.0313,22.4727 Q128.6875,22.4727 128,23.5508 Q127.3125,24.6133 127.3125,26.707 Q127.3125,28.8008 128,29.8789 Q128.6875,30.9414 130.0313,30.9414 Q130.6563,30.9414 131.25,30.6758 Q131.8438,30.3945 132.4688,29.8164 L132.4688,32.5352 Z " fill="#000000"/><text fill="#D9B8FF" font-family="Helvetica" font-size="17" lengthAdjust="spacing" textLength="71" x="148.5" y="32.7798">resource</text></g><!--reverse link ai_resource to ai_job--><g id="link_ai_resource_ai_job"><path codeLine="38" d="M111.074,225.962 C113.184,263.732 116.81,329.05 118.92,366.88 " fill="none" id="ai_resource-backto-ai_job" style="stroke:#FFAF37;stroke-width:2.0;"/><polygon fill="none" points="110.07,207.99,105.0833,226.2966,117.0647,225.6273,110.07,207.99" style="stroke:#FFAF37;stroke-width:2.0;"/></g><!--reverse link resource to ai_resource--><g id="link_resource_ai_resource"><path codeLine="39" d="M156.9716,63.8166 C145.0516,94.3366 128.44,136.9 116.51,167.47 " fill="none" id="resource-backto-ai_resource" style="stroke:#FFAF37;stroke-width:2.0;"/><polygon fill="none" points="163.52,47.05,151.3827,61.6338,162.5604,65.9994,163.52,47.05" style="stroke:#FFAF37;stroke-width:2.0;"/></g><!--reverse link resource to gcp_resource--><g id="link_resource_gcp_resource"><path codeLine="40" d="M179.8895,64.3988 C191.5095,112.1088 217.55,218.98 229.28,267.08 " fill="none" id="resource-backto-gcp_resource" style="stroke:#FFAF37;stroke-width:2.0;"/><polygon fill="none" points="175.63,46.91,174.0599,65.8186,185.7191,62.9789,175.63,46.91" style="stroke:#FFAF37;stroke-width:2.0;"/></g><!--reverse link ai_job to gcp_vertex_ai_batch_prediction_job--><g id="link_ai_job_gcp_vertex_ai_batch_prediction_job"><path codeLine="41" d="M132.7399,424.3941 C143.5099,454.9141 158.44,497.27 169.22,527.83 " fill="none" id="ai_job-backto-gcp_vertex_ai_batch_prediction_job" style="stroke:#FFAF37;stroke-width:2.0;"/><polygon fill="none" points="126.75,407.42,127.0818,426.3908,138.3979,422.3975,126.75,407.42" style="stroke:#FFAF37;stroke-width:2.0;"/></g><!--reverse link gcp_resource to gcp_vertex_ai_batch_prediction_job--><g id="link_gcp_resource_gcp_vertex_ai_batch_prediction_job"><path codeLine="42" d="M225.8002,325.0535 C215.1002,372.7535 191.14,479.56 180.35,527.66 " fill="none" id="gcp_resource-backto-gcp_vertex_ai_batch_prediction_job" style="stroke:#FFAF37;stroke-width:2.0;"/><polygon fill="none" points="229.74,307.49,219.9457,323.7403,231.6547,326.3668,229.74,307.49" style="stroke:#FFAF37;stroke-width:2.0;"/></g><!--SRC=[ZP1FJm8n4CNl_HHDE9E0H8742v8OlH0ZtibiEsKhk-rcEe3uvxiB0bAw0bxV-ytCUvDRZHBBYbUon3932YBChAk0e9G38hyS-iAJR1W3fjDDpNll-28mWXBb0nOBPAiW9LvogsOEGv1NaNK7QZObFtTwkvu9N5XRw3YYXWM4C60ccyqPep2wd_MCISbqQQEZszqRh66UDD8EQRLQkjrFaOkdplR-9SRs7MKxVjh8CzPYraxyK6TJReWePAtetZ-PyGcqjcughoFjUPk97DAHFiv1- -M6Db24-4nW9FIygd1OQuNzdZRTF-77Kx1GczT9i9DNdyaF8RuE2c7mSr8OorDLdTGNI8nla_La1gpoIKMehMBhNRhyU4DywlQpsMpkueYwkbTIAuubTcKEplbWugZJlwU-0G00]--></g></svg>

<svg xmlns="http://www.w3.org/2000/svg" width="352" height="573" viewBox="0 0 352 573"><rect width="91" height="39.789" x="74.5" y="367.37" fill="#3D176E" rx="2.5" ry="2.5" style="stroke:#000d19;stroke-width:.5"/><circle cx="89.5" cy="387.264" r="11" fill="#ADD1B2" style="stroke:#181818;stroke-width:1"/><path d="M92.469 392.905q-.578.297-1.219.438-.64.156-1.344.156-2.5 0-3.828-1.64-1.312-1.657-1.312-4.782t1.312-4.781q1.328-1.656 3.828-1.656.703 0 1.344.156.656.156 1.219.453v2.719q-.625-.579-1.219-.844-.594-.281-1.219-.281-1.344 0-2.031 1.078-.687 1.062-.687 3.156t.687 3.172q.688 1.062 2.031 1.062.625 0 1.219-.265.594-.281 1.219-.86z"/><text x="108.5" y="393.15" fill="#D9B8FF" font-family="Helvetica" font-size="17" textLength="49">ai_job</text><rect width="137" height="39.789" x="40.5" y="167.79" fill="#3D176E" rx="2.5" ry="2.5" style="stroke:#000d19;stroke-width:.5"/><circle cx="55.5" cy="187.685" r="11" fill="#ADD1B2" style="stroke:#181818;stroke-width:1"/><path d="M58.469 193.325q-.578.297-1.219.438-.64.156-1.344.156-2.5 0-3.828-1.64-1.312-1.657-1.312-4.782t1.312-4.781q1.328-1.656 3.828-1.656.703 0 1.344.156.656.156 1.219.453v2.719q-.625-.578-1.219-.844-.594-.281-1.219-.281-1.343 0-2.031 1.078-.687 1.062-.687 3.156t.687 3.172q.688 1.062 2.031 1.062.625 0 1.219-.265.594-.281 1.219-.86z"/><text x="74.5" y="193.57" fill="#D9B8FF" font-family="Helvetica" font-size="17" textLength="95">ai_resource</text><rect width="150" height="39.789" x="159" y="267.58" fill="#3D176E" rx="2.5" ry="2.5" style="stroke:#000d19;stroke-width:.5"/><circle cx="174" cy="287.474" r="11" fill="#ADD1B2" style="stroke:#181818;stroke-width:1"/><path d="M176.969 293.115q-.578.297-1.219.438-.64.156-1.344.156-2.5 0-3.828-1.64-1.312-1.657-1.312-4.782t1.312-4.781q1.328-1.656 3.828-1.656.703 0 1.344.156.656.156 1.219.453v2.719q-.625-.579-1.219-.844-.594-.281-1.219-.281-1.344 0-2.031 1.078-.687 1.062-.687 3.156t.687 3.172q.688 1.062 2.031 1.062.625 0 1.219-.265.594-.281 1.219-.86z"/><text x="193" y="293.36" fill="#D9B8FF" font-family="Helvetica" font-size="17" textLength="108">gcp_resource</text><rect width="338" height="39.789" x="7" y="528.16" fill="#3D176E" rx="2.5" ry="2.5" style="stroke:#000d19;stroke-width:.5"/><circle cx="22" cy="548.054" r="11" fill="#ADD1B2" style="stroke:#181818;stroke-width:1"/><path d="M24.969 553.695q-.578.297-1.219.438-.64.156-1.344.156-2.5 0-3.828-1.64-1.312-1.657-1.312-4.782t1.312-4.781q1.328-1.657 3.828-1.657.703 0 1.344.157.656.156 1.219.453v2.719q-.625-.579-1.219-.844-.594-.281-1.219-.281-1.343 0-2.031 1.078-.687 1.062-.687 3.156t.687 3.172q.688 1.062 2.031 1.062.625 0 1.219-.265.594-.282 1.219-.86z"/><text x="41" y="553.94" fill="#D9B8FF" font-family="Helvetica" font-size="17" textLength="296">gcp_vertex_ai_batch_prediction_job</text><rect width="113" height="39.789" x="114.5" y="7" fill="#3D176E" rx="2.5" ry="2.5" style="stroke:#000d19;stroke-width:.5"/><circle cx="129.5" cy="26.895" r="11" fill="#ADD1B2" style="stroke:#181818;stroke-width:1"/><path d="M132.469 32.535q-.578.297-1.219.438-.64.156-1.344.156-2.5 0-3.828-1.64-1.312-1.657-1.312-4.782t1.312-4.781q1.328-1.656 3.828-1.656.703 0 1.344.156.656.156 1.219.453v2.719q-.625-.578-1.219-.844-.594-.281-1.219-.281-1.344 0-2.031 1.078-.687 1.062-.687 3.156t.687 3.172q.688 1.062 2.031 1.062.625 0 1.219-.265.594-.281 1.219-.86z"/><text x="148.5" y="32.78" fill="#D9B8FF" font-family="Helvetica" font-size="17" textLength="71">resource</text><g fill="none"><path d="M111.074 225.962c2.11 37.77 5.736 103.088 7.846 140.918" style="stroke:#ffaf37;stroke-width:2"/><path d="m110.07 207.99-4.987 18.307 11.982-.67z" style="stroke:#ffaf37;stroke-width:2"/></g><path fill="none" d="M156.972 63.817c-11.92 30.52-28.532 73.083-40.462 103.653m47.01-120.42-12.137 14.584 11.177 4.365zm16.37 17.349c11.62 47.71 37.66 154.581 49.39 202.681M175.63 46.91l-1.57 18.909 11.66-2.84zm-42.89 377.484c10.77 30.52 25.7 72.876 36.48 103.436m-42.47-120.41.332 18.97 11.316-3.993zm99.05-82.366L180.35 527.66m49.39-220.17-9.794 16.25 11.709 2.627z" style="stroke:#ffaf37;stroke-width:2"/></svg>
